!!!SOCIAL_FUNCTION:	songs with treatment of the sick
!!!PDT:	1956
!!!OTL: No_206_The_White_Sun-Lady.krn
!!!LANG: Non-Tone
!!!LING_GROUP: Muskogean
!!!REG: Florida
**kern
*staff1
=1-
*clefF4
*k[b-e-a-]
*M2/4
4..r
16a-\
=2
2f\
=3
[2f\
=4||
*M3/4
4.f\]
8f\
8e-\L
16c\L
16c\JJ
=5
2e-\
4c\
=6
2B-\
8.r
16a-\
=7||
*M2/4
[2g\
=8
8.g\L]
16e-\Jk
8.f;\L
16e-\Jk
=9||
*M3/4
2f\
8.e-\L
16c\Jk
=10||
*M2/4
[2e-\
=11
8.e-\L]
16e-\Jk
4c\
=12||
*M3/4
2B-\
8.r
16a-\
=13||
*M2/4
2f\
=14
[2f\
=15
8.f\L]
16f\Jk
8e-\L
8c\J
=16
[2e-\
=17
8.e-\L]
16e-\Jk
4c\
=18
2B-\
=19||
*k[b-e-]
*M3/8
4r
8g\
=20
*M2/4
12g\L
12c\
12a\J
8.g\L
16f\Jk
=21||
*M3/4
2g\
8.f\L
16d\Jk
=22||
*M2/4
[2f\
=23
8.f\L]
16f\Jk
4d\
=24
2c\
=25
(4..f\
16c\)
=26
4r
4c\
=27!|:
*M3/4
[2f\
8f\L]
16g\L
16f\JJ
=28||
*M2/4
8.f\L
16e-\Jk
8c\L
8c\J
=29
4r
4c\
=30||
*M3/4
[2e-\
8e-\L]
16f\L
16e-\JJ
=31||
*M2/4
8.e-\L
16c\Jk
8A\L
16A\Jk
16r
=32
4r
4A\
=33||
*M3/4
2c\
8c\L
16d\L
16c\JJ
=34
8.c\L
16c\Jk
4c\
4r
=35
*M2/4
4c\
4A\
=36
4c\
4A\
=37||
*M3/4
8.c\L
16c\Jk
4c\
4c\
=38||
*M2/4
4c\
8A\
8r
=39||
*M3/4
4c\
8c\
8r
8.c\L
16d\Jk
=40
4c\
8.c\L
16c\Jk
4c\
==:|!
*-
